build/documents/AddFromTemplateSolid.svg

<svg xmlns="http://www.w3.org/2000/svg" fill="none" viewBox="0 0 24 24" focusable="false"><path d="M0 0H24V24H0z"/><path fill="#74767B" fill-rule="evenodd" d="M4 6C4 4.34315 5.34315 3 7 3L13.4803 3C14.2425 3 14.9761 3.2901 15.5321 3.81139L19.0518 7.11108C19.6568 7.67823 20 8.47047 20 9.2997L20 18C20 19.6569 18.6569 21 17 21L7 21C5.34315 21 4 19.6569 4 18L4 6ZM18.155 8.99999C18.4668 8.99999 18.623 8.62299 18.4025 8.4025L14.5975 4.59748C14.377 4.377 14 4.53316 14 4.84497L14 7.57479C14 8.36191 14.5982 9 15.3361 9L18.155 8.99999ZM12.688 10.6295C12.6886 10.2782 12.4111 9.9894 12.06 9.97605C11.6928 9.96208 11.3863 10.2538 11.3839 10.6214C11.3727 12.3271 11.3823 14.1822 11.3823 14.1822L9.92156 12.5727C9.69097 12.3043 9.28194 12.2698 9.00357 12.5C8.85903 12.6249 8.78303 12.7923 8.77662 12.9722C8.77092 13.1321 8.81555 13.2838 8.93085 13.418L11.4083 16.2179C11.677 16.5377 12.1567 16.5548 12.4476 16.255L15 13.6272C15.2495 13.3659 15.2441 12.9555 14.9928 12.7064C14.7315 12.4569 14.3214 12.4523 14.0719 12.7136L12.6819 14.2215L12.688 10.6295Z"/></svg>

<svg xmlns="http://www.w3.org/2000/svg" fill="none" viewBox="0 0 24 24" focusable="false"><path fill="#74767B" fill-rule="evenodd" d="M4 6c0-1.66 1.34-3 3-3h6.48c.76 0 1.49.29 2.05.81l3.52 3.3c.6.56.95 1.36.95 2.18V18c0 1.65-1.35 3-3 3H7c-1.66 0-3-1.35-3-3zm14.15 2.99c.31 0 .47-.37.25-.59l-3.81-3.81c-.22-.22-.59-.06-.59.25v2.73c0 .79.59 1.43 1.33 1.43zm-5.47 1.63c0-.35-.27-.64-.62-.65a.656.656 0 0 0-.68.65c-.01 1.7 0 3.56 0 3.56l-1.46-1.61A.65.65 0 0 0 9 12.5c-.15.12-.22.29-.23.47 0 .16.04.31.16.44l2.47 2.8c.27.32.75.34 1.04.04L15 13.62c.24-.26.24-.67-.01-.92a.65.65 0 0 0-.92.01l-1.39 1.51z"/></svg>
